DSView/icons/light/square-daq.svg

<?xml version="1.0" encoding="UTF-8" standalone="no"?>
<!-- 由 Microsoft Visio, SVG Export 生成 square-daq.svg 页-1 -->

<svg
   xmlns:v="http://schemas.microsoft.com/visio/2003/SVGExtensions/"
   xmlns:dc="http://purl.org/dc/elements/1.1/"
   xmlns:cc="http://creativecommons.org/ns#"
   xmlns:rdf="http://www.w3.org/1999/02/22-rdf-syntax-ns#"
   xmlns:svg="http://www.w3.org/2000/svg"
   xmlns="http://www.w3.org/2000/svg"
   xmlns:sodipodi="http://sodipodi.sourceforge.net/DTD/sodipodi-0.dtd"
   xmlns:inkscape="http://www.inkscape.org/namespaces/inkscape"
   width="512"
   height="512"
   viewBox="0 0 383.99955 383.99946"
   xml:space="preserve"
   class="st2"
   version="1.1"
   id="svg16"
   sodipodi:docname="square-daq.svg"
   style="font-size:12px;overflow:visible;color-interpolation-filters:sRGB;fill:none;fill-rule:evenodd;stroke-linecap:square;stroke-miterlimit:3"
   inkscape:version="0.92.4 (5da689c313, 2019-01-14)"><metadata
   id="metadata22"><rdf:RDF><cc:Work
       rdf:about=""><dc:format>image/svg+xml</dc:format><dc:type
         rdf:resource="http://purl.org/dc/dcmitype/StillImage" /><dc:title></dc:title></cc:Work></rdf:RDF></metadata><defs
   id="defs20" /><sodipodi:namedview
   pagecolor="#ffffff"
   bordercolor="#666666"
   borderopacity="1"
   objecttolerance="10"
   gridtolerance="10"
   guidetolerance="10"
   inkscape:pageopacity="0"
   inkscape:pageshadow="2"
   inkscape:window-width="3840"
   inkscape:window-height="2081"
   id="namedview18"
   showgrid="false"
   units="px"
   inkscape:zoom="0.86691067"
   inkscape:cx="178.23888"
   inkscape:cy="136.11552"
   inkscape:window-x="-9"
   inkscape:window-y="-9"
   inkscape:window-maximized="1"
   inkscape:current-layer="svg16" />
	<v:documentProperties
   v:langID="2052"
   v:viewMarkup="false" />

	<style
   type="text/css"
   id="style2">
	<![CDATA[
		.st1 {fill:#2a2a2a;stroke:none;stroke-linecap:butt;stroke-width:6.12}
		.st2 {fill:none;fill-rule:evenodd;font-size:12px;overflow:visible;stroke-linecap:square;stroke-miterlimit:3}
	]]>
	</style>

	<g
   v:mID="0"
   v:index="1"
   v:groupContext="foregroundPage"
   id="g14"
   transform="matrix(1.4698946,0,0,1.4698946,-4.4957576,42.141352)">
		<title
   id="title4">页-1</title>
		<v:pageProperties
   v:drawingScale="0.0393701"
   v:pageScale="0.0393701"
   v:drawingUnits="24"
   v:shadowOffsetX="9"
   v:shadowOffsetY="-9" />
		<g
   id="group990-1"
   transform="translate(18.8759)"
   v:mID="990"
   v:groupContext="group">
			<title
   id="title6">工作表.990</title>
			<g
   id="shape992-2"
   v:mID="992"
   v:groupContext="shape"
   transform="translate(-12.7559,-27.6482)">
				<title
   id="title8">工作表.992</title>
				<path
   d="m 161.01,130.5 c 5.95,0 4.25,37.1 10.49,37.1 6.23,0 3.68,-20.79 11.62,-20.79 7.94,0 5.95,36.39 13.04,36.39 7.08,0 7.65,-44.82 15.02,-44.82 7.37,0 5.39,19.36 12.19,19.36 6.8,0 5.95,-27.42 17.29,-27.6 0.85,0 1.99,0 2.84,0 6.8,-0.18 10.77,-0.18 10.77,-0.18 0.56,0 0.85,-0.18 0.85,-0.18 0,-0.18 -0.29,-0.36 -0.85,-0.36 0,0 -3.97,-0.18 -10.77,-0.18 -0.85,0 -1.7,0 -2.56,0 -11.33,0 -10.77,-27.78 -17.29,-27.78 -6.8,0 -4.82,19.36 -12.19,19.36 -7.37,0 -7.65,-44.82 -15.02,-44.82 -7.09,0 -5.1,36.39 -13.04,36.39 -7.94,0 -5.38,-20.79 -11.62,-20.79 -6.24,0 -4.82,37.1 -10.49,37.1 -9.64,0 -9.07,-22.94 -14.46,-22.94 -5.66,0 -3.96,22.59 -9.92,22.77 -3.11,0 -14.45,0 -14.45,0 -10.21,0 -11.06,-35.86 -16.73,-35.86 -5.67,0 -5.38,14.7 -11.34,14.7 -5.95,0 -5.67,-34.95 -11.9,-34.95 -6.24,0 -3.69,17.03 -11.62,17.03 -7.94,0 -5.96,-34.42 -13.33,-34.42 -7.08,0 -7.65,60.05 -15.02,60.05 -7.37,0 -3.97,-29.04 -10.77,-29.04 -6.81,0 -5.95,42.84 -17.29,43.02 -0.85,0 -1.7,0 -2.55,0 -6.81,0.18 -10.78,0.18 -10.78,0.18 -0.56,0 -1.13,0.18 -1.13,0.36 0,0.18 0.28,0.36 0.85,0.36 0,0 3.97,0.18 10.77,0.18 0.85,0 1.7,0 2.84,0 11.34,0.18 10.48,43.02 17.29,43.02 6.8,0 3.4,-29.04 10.77,-29.04 7.37,0 7.65,60.05 15.02,60.05 7.09,0 5.11,-34.59 13.04,-34.59 7.94,0 5.39,17.03 11.62,17.03 6.24,0 5.96,-34.96 11.91,-34.96 5.95,0 5.67,14.7 11.34,14.7 5.67,0 6.52,-35.85 16.72,-35.85 1.7,0 11.63,0 14.46,0 5.95,0.36 4.25,22.76 9.92,22.76 5.67,0.18 5.1,-22.76 14.46,-22.76 z"
   class="st1"
   id="path10"
   inkscape:connector-curvature="0"
   style="fill:#2a2a2a;stroke:none;stroke-width:6.11999989;stroke-linecap:butt" />
			</g>
		</g>
	</g>
</svg>

<?xml version="1.0" encoding="UTF-8" standalone="no"?>
<!DOCTYPE svg PUBLIC "-//W3C//DTD SVG 1.1//EN" "http://www.w3.org/Graphics/SVG/1.1/DTD/svg11.dtd">
<!-- 由 Microsoft Visio, SVG Export 生成 square-daq.svg 页-1 -->
<svg xmlns="http://www.w3.org/2000/svg" xmlns:xlink="http://www.w3.org/1999/xlink" xmlns:ev="http://www.w3.org/2001/xml-events"
		xmlns:v="http://schemas.microsoft.com/visio/2003/SVGExtensions/" width="3.71331in" height="2.83574in"
		viewBox="0 0 267.358 204.173" xml:space="preserve" color-interpolation-filters="sRGB" class="st2">
	<v:documentProperties v:langID="2052" v:viewMarkup="false"/>

	<style type="text/css">
	<![CDATA[
		.st1 {fill:#2a2a2a;stroke:none;stroke-linecap:butt;stroke-width:6.12}
		.st2 {fill:none;fill-rule:evenodd;font-size:12px;overflow:visible;stroke-linecap:square;stroke-miterlimit:3}
	]]>
	</style>

	<g v:mID="0" v:index="1" v:groupContext="foregroundPage">
		<title>页-1</title>
		<v:pageProperties v:drawingScale="0.0393701" v:pageScale="0.0393701" v:drawingUnits="24" v:shadowOffsetX="9"
				v:shadowOffsetY="-9"/>
		<g id="group990-1" transform="translate(18.8759,0)" v:mID="990" v:groupContext="group">
			<title>工作表.990</title>
			<g id="shape992-2" v:mID="992" v:groupContext="shape" transform="translate(-12.7559,-27.6482)">
				<title>工作表.992</title>
				<path d="M161.01 130.5 C166.96 130.5 165.26 167.6 171.5 167.6 C177.73 167.6 175.18 146.81 183.12 146.81 C191.06 146.81
							 189.07 183.2 196.16 183.2 C203.24 183.2 203.81 138.38 211.18 138.38 C218.55 138.38 216.57 157.74 223.37
							 157.74 C230.17 157.74 229.32 130.32 240.66 130.14 C241.51 130.14 242.65 130.14 243.5 130.14 C250.3 129.96
							 254.27 129.96 254.27 129.96 C254.83 129.96 255.12 129.78 255.12 129.78 C255.12 129.6 254.83 129.42 254.27
							 129.42 C254.27 129.42 250.3 129.24 243.5 129.24 C242.65 129.24 241.8 129.24 240.94 129.24 C229.61 129.24
							 230.17 101.46 223.65 101.46 C216.85 101.46 218.83 120.82 211.46 120.82 C204.09 120.82 203.81 76 196.44
							 76 C189.35 76 191.34 112.39 183.4 112.39 C175.46 112.39 178.02 91.6 171.78 91.6 C165.54 91.6 166.96
							 128.7 161.29 128.7 C151.65 128.7 152.22 105.76 146.83 105.76 C141.17 105.76 142.87 128.35 136.91 128.53
							 C133.8 128.53 122.46 128.53 122.46 128.53 C112.25 128.53 111.4 92.67 105.73 92.67 C100.06 92.67 100.35
							 107.37 94.39 107.37 C88.44 107.37 88.72 72.42 82.49 72.42 C76.25 72.42 78.8 89.45 70.87 89.45 C62.93
							 89.45 64.91 55.03 57.54 55.03 C50.46 55.03 49.89 115.08 42.52 115.08 C35.15 115.08 38.55 86.04 31.75
							 86.04 C24.94 86.04 25.8 128.88 14.46 129.06 C13.61 129.06 12.76 129.06 11.91 129.06 C5.1 129.24 1.13
							 129.24 1.13 129.24 C0.57 129.24 0 129.42 0 129.6 C0 129.78 0.28 129.96 0.85 129.96 C0.85 129.96 4.82
							 130.14 11.62 130.14 C12.47 130.14 13.32 130.14 14.46 130.14 C25.8 130.32 24.94 173.16 31.75 173.16 C38.55
							 173.16 35.15 144.12 42.52 144.12 C49.89 144.12 50.17 204.17 57.54 204.17 C64.63 204.17 62.65 169.58
							 70.58 169.58 C78.52 169.58 75.97 186.61 82.2 186.61 C88.44 186.61 88.16 151.65 94.11 151.65 C100.06
							 151.65 99.78 166.35 105.45 166.35 C111.12 166.35 111.97 130.5 122.17 130.5 C123.87 130.5 133.8 130.5
							 136.63 130.5 C142.58 130.86 140.88 153.26 146.55 153.26 C152.22 153.44 151.65 130.5 161.01 130.5 Z"
						class="st1"/>
			</g>
		</g>
	</g>
</svg>
